X:2724
T:Humours of Whiskey, The
O:england
M:9/8
L:1/8
R:slip jig
K:Edor
G2A Bee Bee|GFG BGB AFD|G2A Bee Bee|dcd A2G FED:|
|:d2e fdf ecA|dcd fdf gfe|d2e fdf ecA|Bcd A2G FED|
d2e fdf ecA|dcd fdf gfe|d2e fga ecA|Bcd A2G FED||


